X:214
T: Birks of Abergeldy
N: O'Farrell's Pocket Companion v.3 (Sky ed. p.106)
N: "Scotch"
M: C
L: 1/8
Q: 200
K: G
G>ABd g2 ge| g2 ge g>a g/a/b| GABd g>aba| gedB A2 e2 :|
G>ABg dGBG| dGBd e/d/c/B/ AB|  GABd g>aba| gedB A2 e2|
G>ABg d>gBg| dgBg e/d/c/B/ AB| GABd g>aba| gedB A2 e2 :|
